images/youtube.svg

<svg width="30" height="30" viewBox="0 0 30 30" fill="none" xmlns="http://www.w3.org/2000/svg">
<path d="M17.5047 14.7391L13.9953 13.1016C13.6891 12.9594 13.4375 13.1187 13.4375 13.4578V16.5422C13.4375 16.8813 13.6891 17.0406 13.9953 16.8984L17.5031 15.2609C17.8109 15.1172 17.8109 14.8828 17.5047 14.7391ZM15 0C6.71562 0 0 6.71562 0 15C0 23.2844 6.71562 30 15 30C23.2844 30 30 23.2844 30 15C30 6.71562 23.2844 0 15 0ZM15 21.0938C7.32188 21.0938 7.1875 20.4016 7.1875 15C7.1875 9.59844 7.32188 8.90625 15 8.90625C22.6781 8.90625 22.8125 9.59844 22.8125 15C22.8125 20.4016 22.6781 21.0938 15 21.0938Z" fill="#5C5C5E"/>
</svg>

<svg width="30" height="30" fill="none" xmlns="http://www.w3.org/2000/svg"><path d="m17.505 14.74-3.51-1.638c-.306-.143-.557.017-.557.356v3.084c0 .34.251.499.557.356l3.508-1.637c.308-.144.308-.378.002-.522ZM15 0C6.716 0 0 6.716 0 15c0 8.284 6.716 15 15 15 8.284 0 15-6.716 15-15 0-8.284-6.716-15-15-15Zm0 21.094c-7.678 0-7.813-.692-7.813-6.094S7.322 8.906 15 8.906s7.813.692 7.813 6.094-.135 6.094-7.813 6.094Z" fill="#5C5C5E"/></svg>
